style-guide/assets/wds-icons-paragraph-small.svg

<svg xmlns="http://www.w3.org/2000/svg" xmlns:xlink="http://www.w3.org/1999/xlink" width="18" height="18" viewBox="0 0 18 18">
  <defs>
    <path id="paragraph-a" d="M12,16 L12,3 L8,3 C6.66666667,3 6.66666667,1 8,1 L16,1 C17.3333333,1 17.3333333,3 16,3 L14,3 L14,16 C14,17.3333333 12,17.3333333 12,16 Z M7,16 L7,8 C7,6.66666667 9,6.66666667 9,8 L9,16 C9,17.3333333 7,17.3333333 7,16 Z M7,3 L5,3 C3.89528475,3 3,3.89528475 3,5 C3,6.10471525 3.89528475,7 5,7 L7,7 L7,3 Z M5,1 L8,1 C8.55228475,1 9,1.44771525 9,2 L9,8 C9,8.55228475 8.55228475,9 8,9 L5,9 C2.79071525,9 1,7.20928475 1,5 C1,2.79071525 2.79071525,1 5,1 Z"/>
  </defs>
  <use xlink:href="#paragraph-a"/>
</svg>

<svg xmlns="http://www.w3.org/2000/svg" xmlns:xlink="http://www.w3.org/1999/xlink" viewBox="0 0 18 18">
  <defs>
    <path id="paragraph-a" d="M12 16V3H8C6.667 3 6.667 1 8 1h8c1.333 0 1.333 2 0 2h-2v13c0 1.333-2 1.333-2 0zm-5 0V8c0-1.333 2-1.333 2 0v8c0 1.333-2 1.333-2 0zM7 3H5a2 2 0 1 0 0 4h2V3zM5 1h3a1 1 0 0 1 1 1v6a1 1 0 0 1-1 1H5a4 4 0 1 1 0-8z"/>
  </defs>
  <use xlink:href="#paragraph-a"/>
</svg>
